icons/line/message.svg

<svg width="24" height="24" viewBox="0 0 24 24" fill="none" xmlns="http://www.w3.org/2000/svg">
<path d="M19 4H5C3.89543 4 3 4.89543 3 6V15C3 16.1046 3.89543 17 5 17C6.10457 17 7 17.8954 7 19V19.9691C7 20.7988 7.95209 21.2676 8.60971 20.7618L12.9608 17.4148C13.3104 17.1458 13.7392 17 14.1802 17H19C20.1046 17 21 16.1046 21 15V6C21 4.89543 20.1046 4 19 4Z" stroke="currentColor" stroke-width="2" stroke-linecap="round" stroke-linejoin="round"/>
</svg>

<svg width="24" height="24" fill="none" xmlns="http://www.w3.org/2000/svg"><path d="M19 4H5a2 2 0 00-2 2v9a2 2 0 002 2 2 2 0 012 2v.97a1 1 0 001.61.792l4.35-3.347A2 2 0 0114.18 17H19a2 2 0 002-2V6a2 2 0 00-2-2z" stroke="currentColor" stroke-width="2" stroke-linecap="round" stroke-linejoin="round"/></svg>
